projects/ccf-eui/src/assets/icons/organ-icons/organ-icon-lungs.svg

<svg width="64" height="64" viewBox="0 0 64 64" fill="currentColor" xmlns="http://www.w3.org/2000/svg">
<g clip-path="url(#clip0_1795_295)">
<path d="M23.2746 15.7653C23.3147 15.3638 23.268 14.9582 23.1377 14.5763C23.0075 14.1943 22.7966 13.8448 22.5194 13.5515C22.2423 13.2581 21.9053 13.0278 21.5313 12.876C21.1573 12.7243 20.7551 12.6547 20.3519 12.672C19.4675 12.6904 18.6134 12.9975 17.9199 13.5467C17.3611 13.9623 16.84 14.4263 16.3626 14.9333C14.4072 16.889 12.6493 19.0327 11.1146 21.3333C9.2297 24.1915 7.56105 27.1865 6.12259 30.2933C4.36007 34.0986 3.18063 38.1475 2.62393 42.304C1.64259 49.3867 2.13326 53.44 4.26659 54.4853C6.89059 55.8507 17.0666 54.9333 21.9306 51.7547C22.479 51.3895 22.8856 50.8474 23.0826 50.2187C23.2164 49.7312 23.2951 49.2303 23.3173 48.7253C23.3173 48.7253 23.3173 38.6987 23.3173 30.9973C23.3173 23.296 23.2746 16.064 23.2746 15.7653Z" />
<path d="M40.7466 15.7653C40.7703 15.1393 40.9539 14.5297 41.2799 13.9947C41.5165 13.5745 41.8653 13.2283 42.2872 12.9948C42.7091 12.7612 43.1875 12.6495 43.6692 12.672C44.5536 12.6904 45.4077 12.9975 46.1012 13.5467C46.6619 13.9758 47.183 14.4542 47.6586 14.976C49.614 16.9317 51.3719 19.0754 52.9066 21.376C54.7896 24.2204 56.4582 27.2011 57.8986 30.2933C59.6515 34.1022 60.8305 38.1496 61.3972 42.304C62.3786 49.3867 61.8239 53.44 59.7972 54.4853C57.1732 55.8507 46.8906 54.9333 42.1332 51.7547C41.5849 51.3895 41.1783 50.8474 40.9812 50.2187C40.8475 49.7312 40.7687 49.2303 40.7466 48.7253V15.7653Z" />
<path d="M38.4001 22.272C37.1654 21.8621 36.0899 21.076 35.3247 20.0238C34.5595 18.9716 34.1429 17.7063 34.1334 16.4053V6.54935H29.8668V16.4053C29.8617 17.71 29.4472 18.9801 28.6817 20.0365C27.9162 21.0929 26.8383 21.8823 25.6001 22.2933V25.8347H38.4001V22.272Z" />
</g>
<defs>
<clipPath id="clip0_1795_295">
<rect width="64" height="64" />
</clipPath>
</defs>
</svg>

<svg xmlns="http://www.w3.org/2000/svg" width="64" height="64" fill="currentColor" viewBox="0 0 64 64"><g clip-path="url(#a)"><path d="M23.275 15.765a2.816 2.816 0 0 0-2.923-3.093 4.05 4.05 0 0 0-2.432.875c-.559.415-1.08.88-1.557 1.386a42 42 0 0 0-5.248 6.4 69 69 0 0 0-4.992 8.96 41.8 41.8 0 0 0-3.5 12.011c-.98 7.083-.49 11.136 1.644 12.181 2.624 1.366 12.8.448 17.664-2.73a2.88 2.88 0 0 0 1.152-1.536c.133-.488.212-.989.234-1.494V30.997c0-7.701-.042-14.933-.042-15.232M40.747 15.765a3.7 3.7 0 0 1 .533-1.77 2.6 2.6 0 0 1 2.39-1.323 4.05 4.05 0 0 1 2.431.875c.56.429 1.082.907 1.558 1.429a42 42 0 0 1 5.248 6.4 69 69 0 0 1 4.992 8.917 42.5 42.5 0 0 1 3.498 12.011c.982 7.083.427 11.136-1.6 12.181-2.624 1.366-12.906.448-17.664-2.73a2.88 2.88 0 0 1-1.152-1.536 6.8 6.8 0 0 1-.234-1.494zM38.4 22.272a6.23 6.23 0 0 1-4.267-5.867V6.55h-4.266v9.856a6.23 6.23 0 0 1-4.267 5.888v3.542h12.8z"/></g><defs><clipPath id="a"><path d="M0 0h64v64H0z"/></clipPath></defs></svg>
